src/assets/icons/letters,fancy,serif-e.svg

<svg width="48" height="48" viewBox="0 0 48 48" fill="none" xmlns="http://www.w3.org/2000/svg">
<path d="M20.3962 20.812C22.0176 20.812 23.3222 20.7613 24.3102 20.66C25.2982 20.5587 26.0582 20.356 26.5902 20.052C27.1476 19.7227 27.5402 19.254 27.7682 18.646C27.9962 18.038 28.1736 17.2147 28.3002 16.176H29.7062V27.31H28.3002C28.1482 26.2967 27.9456 25.486 27.6922 24.878C27.4389 24.27 27.0336 23.814 26.4762 23.51C25.9189 23.1807 25.1589 22.978 24.1962 22.902C23.2589 22.8007 21.9922 22.75 20.3962 22.75V30.578C20.3962 31.3887 20.4976 32.0727 20.7002 32.63C20.9282 33.1873 21.2956 33.6433 21.8022 33.998C22.3089 34.3273 22.9802 34.568 23.8162 34.72C24.6522 34.8467 25.6782 34.91 26.8942 34.91C28.3382 34.91 29.5542 34.8087 30.5422 34.606C31.5556 34.4033 32.3916 34.0487 33.0502 33.542C33.7089 33.0353 34.2409 32.364 34.6462 31.528C35.0516 30.6667 35.3936 29.59 35.6722 28.298H37.1922L36.5842 37H10.8202V35.48C11.6562 35.4547 12.3402 35.3787 12.8722 35.252C13.4042 35.1253 13.8096 34.91 14.0882 34.606C14.3669 34.302 14.5569 33.8713 14.6582 33.314C14.7596 32.7567 14.8102 32.0347 14.8102 31.148V13.592C14.8102 12.7053 14.7596 11.996 14.6582 11.464C14.5822 10.9067 14.4176 10.476 14.1642 10.172C13.9109 9.84267 13.5436 9.62733 13.0622 9.526C12.6062 9.39933 11.9982 9.31067 11.2382 9.26V7.74H35.2542L35.5202 15.188H33.8862C33.7342 14.124 33.4936 13.25 33.1642 12.566C32.8349 11.8567 32.3789 11.2993 31.7962 10.894C31.2136 10.4633 30.4536 10.172 29.5162 10.02C28.6042 9.84267 27.4769 9.754 26.1342 9.754H21.8402C21.1816 9.754 20.7762 9.84267 20.6242 10.02C20.4722 10.172 20.3962 10.552 20.3962 11.16V20.812Z" fill="black"/>
</svg>

<svg xmlns="http://www.w3.org/2000/svg" width="48" height="48" fill="none" viewBox="0 0 48 48">
  <path fill="#000" d="M20.396 20.812c1.622 0 2.926-.05 3.914-.152.988-.101 1.748-.304 2.28-.608a2.68 2.68 0 001.178-1.406c.228-.608.406-1.431.532-2.47h1.406V27.31H28.3c-.152-1.013-.354-1.824-.608-2.432a2.682 2.682 0 00-1.216-1.368c-.557-.33-1.317-.532-2.28-.608-.937-.101-2.204-.152-3.8-.152v7.828c0 .81.102 1.495.304 2.052a3.054 3.054 0 001.102 1.368c.507.33 1.178.57 2.014.722.836.127 1.862.19 3.078.19 1.444 0 2.66-.101 3.648-.304 1.014-.203 1.85-.557 2.508-1.064.659-.507 1.19-1.178 1.596-2.014.406-.861.748-1.938 1.026-3.23h1.52L36.584 37H10.82v-1.52c.836-.025 1.52-.101 2.052-.228s.938-.342 1.216-.646c.279-.304.469-.735.57-1.292.102-.557.152-1.28.152-2.166V13.592c0-.887-.05-1.596-.152-2.128-.076-.557-.24-.988-.494-1.292-.253-.33-.62-.545-1.102-.646-.456-.127-1.064-.215-1.824-.266V7.74h24.016l.266 7.448h-1.634c-.152-1.064-.392-1.938-.722-2.622-.33-.71-.785-1.267-1.368-1.672-.582-.43-1.342-.722-2.28-.874-.912-.177-2.04-.266-3.382-.266H21.84c-.658 0-1.064.089-1.216.266-.152.152-.228.532-.228 1.14v9.652z"/>
</svg>
